X:17
T:Sorting Hat / Little Yarmouth
T:to the tune of "The Morning Star"
M:4/4
L:1/8
K:G
P:A
GA"S"|"G"B2BA "Em"BGEF|"G"GABd "C"efed|"G"B2BA "Em"BGEF|"G"GB"D"AF "G"G2:|
P:B
GA|"Em"Bdef "C"g2eg|"D"f2df "G"edBA|"Em"Bdef "C"g2fg|"D"agfg "C"e2z2|
"Em"Bdef "C"g2eg|"D"f2df "Em"edBA|"G"Bdd^c "D"d2ef|"C"ge"D"af "Em"gfed"DS"[|]||
